X: 18132
T: Humours Of Castlefin, The
R: reel
M: 4/4
K: Gmajor
d^c|BE E2 BEGB|AD D2 FGAd|BE E2 B2 AF|GBAF EFGA|
BE E2 BEGB|AD D2 FGAd|BE E2 B2 AF|GBAF EFGA|
B2 eB egfe|defg afed|Beed efgb|agfa geed|
B2 eB egfe|defg afdf|efga bagf|egfd e2||

